react_webviews/src/assets/stocks.svg

<svg width="33" height="33" viewBox="0 0 33 33" fill="none" xmlns="http://www.w3.org/2000/svg">
<path d="M25.0222 28.0944L23.0711 25.6247L22.2154 26.0417C21.9757 26.8008 21.5102 28.3317 21.565 28.383C23.0163 29.1785 24.4745 28.522 25.0222 28.0944Z" fill="#33CF90"/>
<path d="M10.6459 29.5705C9.46838 26.1835 11.9808 24.4601 13.3843 24.0218C8.91576 23.4844 7.71928 26.2132 7.6386 28.1887C7.619 28.6685 7.9877 29.0551 8.45913 29.1465L10.6459 29.5705Z" fill="#33CF90"/>
<path d="M12.2897 23.2194C5.66283 23.6556 4.85044 28.2549 5.27261 30.5C4.6793 30.2755 3.39682 29.788 3.01345 29.634C2.53423 29.4416 2.5 29.2491 2.5 28.8322C3.04768 24.034 6.99552 21.0598 8.90098 20.1724C6.84719 20.1082 4.89609 18.4084 5.44377 16.8047C6.43643 13.5332 9.31174 14.0785 10.544 14.9765C11.7763 15.8746 12.5978 15.6821 13.8643 14.8162C14.8775 14.1234 15.998 14.3778 16.4315 14.5916C14.8227 17.2537 11.0506 16.5289 10.3386 15.6821C9.44866 14.6237 6.43643 14.5916 6.19682 16.8047C6.00513 18.5751 7.80562 19.2743 8.72983 19.4026C15.2335 20.5573 19.478 14.4313 20.2653 13.6615C21.0526 12.8918 21.3196 12.6095 21.8399 12.8918C27.8301 15.4576 27.8301 22.4817 27.8301 22.193C28.412 11.8975 18.4169 10.39 18.1088 10.3259C17.8007 10.2617 17.4584 10.0052 17.5954 8.97881C17.7049 8.15773 18.1887 7.99523 18.4169 8.01661C21.566 8.46564 20.9841 5.77148 24.4755 6.44502C27.967 7.11856 29.5416 4.61684 29.7127 2.5C30.5068 5.1685 27.8757 7.28961 26.4609 8.01661C31.8692 13.5974 30.1235 20.7818 29.3362 22.4817C28.5489 24.1816 28.6516 26.8757 29.5416 27.87C30.2535 28.6654 30.4772 29.8051 30.5 30.2755L27.9328 29.9868C27.8138 29.6748 27.5492 29.2437 27.1777 28.8479C26.4718 28.0959 25.4536 27.6897 24.7509 26.9348C22.6961 24.7275 22.9231 22.3104 23.2775 21.1667C22.6477 22.347 22.7869 24.2457 22.9352 25.0475C22.4902 25.8814 19.8545 26.0097 18.0746 25.689C16.2946 25.3683 14.9939 23.4759 12.2897 23.2194Z" fill="#33CF90"/>
<path d="M16.1569 4.68129C17.5535 7.11886 20.2531 7.15093 21.4283 6.86227C20.9491 7.3113 19.7031 8.06181 18.553 7.47166C17.4029 6.88152 16.4764 5.36552 16.1569 4.68129Z" fill="#33CF90"/>
</svg>

<svg xmlns="http://www.w3.org/2000/svg" width="33" height="33" fill="#33cf90" xmlns:v="https://vecta.io/nano"><path d="M25.022 28.094l-1.951-2.47-.856.417-.65 2.341c1.451.796 2.909.139 3.457-.289zm-14.376 1.477c-1.178-3.387 1.335-5.11 2.738-5.549-4.469-.537-5.665 2.191-5.746 4.167-.02.48.349.866.821.958l2.187.424z"/><path d="M12.29 23.219c-6.627.436-7.439 5.035-7.017 7.281l-2.259-.866c-.479-.192-.513-.385-.513-.802.548-4.798 4.496-7.772 6.401-8.66-2.054-.064-4.005-1.764-3.457-3.368.993-3.271 3.868-2.726 5.1-1.828s2.054.706 3.32-.16c1.013-.693 2.134-.438 2.567-.225-1.609 2.662-5.381 1.937-6.093 1.091-.89-1.058-3.902-1.091-4.142 1.123-.192 1.77 1.609 2.47 2.533 2.598 6.504 1.155 10.748-4.971 11.535-5.741s1.054-1.052 1.575-.77c5.99 2.566 5.99 9.59 5.99 9.301.582-10.295-9.413-11.803-9.721-11.867s-.65-.321-.513-1.347c.109-.821.593-.984.821-.962 3.149.449 2.567-2.245 6.059-1.572s5.066-1.828 5.237-3.945c.794 2.669-1.837 4.79-3.252 5.517 5.408 5.581 3.663 12.765 2.875 14.465s-.685 4.394.205 5.388c.712.795.936 1.935.958 2.406l-2.567-.289c-.119-.312-.384-.743-.755-1.139-.706-.752-1.724-1.158-2.427-1.913-2.055-2.207-1.828-4.624-1.473-5.768-.63 1.18-.491 3.079-.342 3.881-.445.834-3.081.962-4.861.642s-3.081-2.213-5.785-2.47zm3.867-18.538c1.397 2.438 4.096 2.47 5.271 2.181-.479.449-1.725 1.2-2.875.609s-2.077-2.106-2.396-2.79z"/></svg>
